;FLAVOR:Marlin
;TIME:14175
;Filament used: 11.9571m
;Layer height: 0.16
;MINX:35.232
;MINY:20.477
;MINZ:0.2
;MAXX:144.767
;MAXY:130.023
;MAXZ:69.6
;TARGET_MACHINE.NAME:Kingroon KP3S
;Generated with Cura_SteamEngine 5.7.1
M140 S60
M105
M190 S60
M104 S200
M105
M109 S200
M82 ;absolute extrusion mode
G28 ; home all axes
 M117 Purge extruder
 G92 E0 ; reset extruder
 G1 Z1.0 F3000 ; move z up little to prevent scratching of surface
 G1 X2 Y20 Z0.3 F5000.0 ; move to start-line position
 G1 X2 Y175.0 Z0.3 F1500.0 E15 ; draw 1st line
 G1 X2 Y175.0 Z0.4 F5000.0 ; move to side a little
 G1 X2 Y20 Z0.4 F1500.0 E30 ; draw 2nd line
 G92 E0 ; reset extruder
 G1 Z1.0 F3000 ; move z up little to prevent scratching of surface
G92 E0
G92 E0
G1 F2400 E-1
;LAYER_COUNT:364
;LAYER:0
M107
G1 F240 Z0.52
G0 F6000 X83.848 Y65.276 Z0.52
;TYPE:SKIRT
G1 F240 Z0.2
G1 F2400 E0
G1 F1200 X102.148 Y65.276 E0.66953
G1 X102.148 Y83.576 E1.33905
G1 X83.848 Y83.576 E2.00858
G1 X83.848 Y65.276 E2.67811
G0 F6000 X84.288 Y65.716
G1 F1200 X101.708 Y65.716 E3.31544
G1 X101.708 Y83.136 E3.95277
G1 X84.288 Y83.136 E4.5901
G1 X84.288 Y65.716 E5.22743
G0 F6000 X84.728 Y66.156
G1 F1200 X101.268 Y66.156 E5.83256
G1 X101.268 Y82.696 E6.4377
G1 X84.728 Y82.696 E7.04283
G1 X84.728 Y66.156 E7.64797
G0 F6000 X85.168 Y66.596
G1 F1200 X100.828 Y66.596 E8.22091
G1 X100.828 Y82.256 E8.79385
G1 X85.168 Y82.256 E9.36679
G1 X85.168 Y66.596 E9.93972
G0 F6000 X85.608 Y67.036
G1 F1200 X100.388 Y67.036 E10.48047
G1 X100.388 Y81.816 E11.02121
G1 X85.608 Y81.816 E11.56195
G1 X85.608 Y67.036 E12.1027
G0 F6000 X86.048 Y67.476
G1 F1200 X99.948 Y67.476 E12.61125
G1 X99.948 Y81.376 E13.11979
G1 X86.048 Y81.376 E13.62834
G1 X86.048 Y67.476 E14.13689
G0 F6000 X86.488 Y67.916
G1 F1200 X99.508 Y67.916 E14.61324
G1 X99.508 Y80.936 E15.08959
G1 X86.488 Y80.936 E15.56594
G1 X86.488 Y67.916 E16.04229
G0 F6000 X86.928 Y68.356
G1 F1200 X99.068 Y68.356 E16.48645
G1 X99.068 Y80.496 E16.93061
G1 X86.928 Y80.496 E17.37476
G1 X86.928 Y68.356 E17.81892
G0 F6000 X87.368 Y68.796
G1 F1200 X98.628 Y68.796 E18.23088
G1 X98.628 Y80.056 E18.64284
G1 X87.368 Y80.056 E19.0548
G1 X87.368 Y68.796 E19.46676
G0 F6000 X88.248 Y69.676
;TYPE:SUPPORT
G1 F1200 X88.248 Y79.176 E19.81433
G1 X97.748 Y79.176 E20.16189
G1 X97.748 Y69.676 E20.50946
G1 X88.248 Y69.676 E20.85703
G0 F6000 X87.808 Y69.236
G1 F1200 X87.808 Y79.616 E21.2368
G1 X98.188 Y79.616 E21.61656
G1 X98.188 Y69.236 E21.99632
G1 X87.808 Y69.236 E22.37609
G0 F6000 X88.336 Y70.4
G1 F1200 X97.66 Y70.4 E22.71722
G0 F6000 X96.8 Y69.764
G1 F1200 X96.8 Y79.088 E23.05835
G1 F2400 E22.05835
G1 F240 Z0.52
G0 F6000 X94.6 Y79.088 Z0.52
G1 F240 Z0.2
G1 F2400 E23.05835
G1 F1200 X94.6 Y69.764 E23.39948
G1 F2400 E22.39948
G1 F240 Z0.52
G0 F6000 X92.4 Y69.764 Z0.52
G1 F240 Z0.2
G1 F2400 E23.39948
G1 F1200 X92.4 Y79.088 E23.74061
G1 F2400 E22.74061
G1 F240 Z0.52
G0 F6000 X90.2 Y79.088 Z0.52
G1 F240 Z0.2
G1 F2400 E23.74061
G1 F1200 X90.2 Y69.764 E24.08173
G1 F2400 E23.08173
G1 F240 Z0.52
G0 F6000 X88.336 Y72.6 Z0.52
G1 F240 Z0.2
G1 F2400 E24.08173
G1 F1200 X97.66 Y72.6 E24.42286
G1 F2400 E23.42286
G1 F240 Z0.52
G0 F6000 X97.66 Y74.8 Z0.52
G1 F240 Z0.2
G1 F2400 E24.42286
G1 F1200 X88.336 Y74.8 E24.76399
G1 F2400 E23.76399
G1 F240 Z0.52
G0 F6000 X88.336 Y77 Z0.52
G1 F240 Z0.2
G1 F2400 E24.76399
G1 F1200 X97.66 Y77 E25.10512
G1 F2400 E24.10512
G1 F240 Z0.52
;MESH:Ring Plate v1.stl
G0 F6000 X124.997 Y42.261 Z0.52
;TYPE:WALL-INNER
G1 F240 Z0.2
G1 F2400 E25.10512
G1 F1200 X124.698 Y42.179 E25.11647
G1 X124.334 Y42.024 E25.13094
G1 X124.113 Y41.897 E25.14027
G1 X123.799 Y41.663 E25.15459
G1 X123.658 Y41.539 E25.16146
G1 X123.342 Y41.132 E25.18031
G1 X123.205 Y40.892 E25.19042
G1 X123.052 Y40.528 E25.20487
G1 X122.976 Y40.24 E25.21577
G1 X122.928 Y39.852 E25.23007
G1 X122.928 Y39.579 E25.24006
G1 X122.981 Y39.16 E25.25551
G1 X123.051 Y38.912 E25.26494
G1 X123.203 Y38.544 E25.27951
G1 X123.346 Y38.295 E25.29001
G1 X123.582 Y37.986 E25.30424
G1 X123.721 Y37.837 E25.31169
G1 X124.104 Y37.542 E25.32938
G1 X124.344 Y37.404 E25.33951
G1 X124.708 Y37.252 E25.35394
G1 X124.985 Y37.177 E25.36444
G1 X125.42 Y37.12 E25.38049
G1 X125.668 Y37.125 E25.38957
G1 X126.052 Y37.177 E25.40374
G1 X126.328 Y37.253 E25.41422
G1 X126.693 Y37.404 E25.42867
G1 X126.932 Y37.542 E25.43877
G1 X127.34 Y37.859 E25.45767
G1 X127.458 Y37.991 E25.46415
G1 X127.74 Y38.37 E25.48143
G1 X127.832 Y38.544 E25.48863
G1 X127.983 Y38.908 E25.50305
G1 X128.061 Y39.195 E25.51393
G1 X128.108 Y39.579 E25.52808
G1 X128.108 Y39.852 E25.53807
G1 X128.06 Y40.24 E25.55238
G1 X128.033 Y40.381 E25.55763
G1 X127.983 Y40.528 E25.56331
G1 X127.832 Y40.892 E25.57773
G1 X127.69 Y41.137 E25.58809
G1 X127.453 Y41.445 E25.6023
G1 X127.265 Y41.638 E25.61216
G1 X126.929 Y41.896 E25.62766
G1 X126.692 Y42.032 E25.63766
G1 X126.328 Y42.183 E25.65208
G1 X126.041 Y42.26 E25.66295
G1 X125.657 Y42.308 E25.67711
G1 X125.439 Y42.314 E25.68508
G1 X124.997 Y42.261 E25.70137
G0 F6000 X125.051 Y41.824
G1 F1200 X124.871 Y41.775 E25.7082
G1 X124.507 Y41.619 E25.72269
G1 X124.375 Y41.543 E25.72826
G1 X124.062 Y41.31 E25.74253
G1 X123.977 Y41.236 E25.74666
G1 X123.693 Y40.867 E25.76369
G1 X123.611 Y40.723 E25.76976
G1 X123.458 Y40.359 E25.7842
G1 X123.412 Y40.186 E25.79075
G1 X123.365 Y39.798 E25.80505
G1 X123.365 Y39.634 E25.81105
G1 X123.416 Y39.228 E25.82602
G1 X123.457 Y39.08 E25.83164
G1 X123.61 Y38.712 E25.84622
G1 X123.696 Y38.562 E25.85255
G1 X123.932 Y38.254 E25.86674
G1 X124.015 Y38.164 E25.87122
G1 X124.369 Y37.893 E25.88753
G1 X124.513 Y37.81 E25.89361
G1 X124.877 Y37.658 E25.90805
G1 X125.044 Y37.613 E25.91437
G1 X125.46 Y37.558 E25.92973
G1 X125.609 Y37.561 E25.93518
G1 X125.993 Y37.613 E25.94936
G1 X126.159 Y37.659 E25.95566
G1 X126.523 Y37.81 E25.97008
G1 X126.667 Y37.893 E25.97616
G1 X127.036 Y38.177 E25.99319
G1 X127.107 Y38.257 E25.99711
G1 X127.371 Y38.609 E26.0132
G1 X127.426 Y38.713 E26.01751
G1 X127.577 Y39.077 E26.03193
G1 X127.624 Y39.25 E26.03848
G1 X127.671 Y39.634 E26.05264
G1 X127.671 Y39.798 E26.05864
G1 X127.607 Y40.27 E26.07607
G1 X127.426 Y40.723 E26.09391
G1 X127.34 Y40.87 E26.10014
G1 X127.104 Y41.178 E26.11434
G1 X126.983 Y41.3 E26.12063
G1 X126.665 Y41.544 E26.13529
G1 X126.523 Y41.626 E26.14129
G1 X126.159 Y41.777 E26.15571
G1 X125.986 Y41.823 E26.16226
G1 X125.515 Y41.876 E26.1796
G1 X125.051 Y41.824 E26.19668
G1 F2400 E25.19668
G1 F240 Z0.52
G0 F6000 X54.976 Y42.261 Z0.52
G1 F240 Z0.2
G1 F2400 E26.19668
G1 F1200 X54.588 Y42.309 E26.21098
G1 X54.315 Y42.308 E26.22097
G1 X53.931 Y42.26 E26.23513
G1 X53.697 Y42.204 E26.24393
G1 X53.27 Y42.024 E26.26089
G1 X53.047 Y41.895 E26.27031
G1 X52.729 Y41.659 E26.2848
G1 X52.621 Y41.565 E26.29004
G1 X52.514 Y41.444 E26.29595
G1 X52.268 Y41.118 E26.31089
G1 X52.14 Y40.892 E26.32039
G1 X51.988 Y40.528 E26.33483
G1 X51.912 Y40.24 E26.34572
G1 X51.864 Y39.851 E26.36006
G1 X51.864 Y39.579 E26.37001
G1 X51.912 Y39.195 E26.38417
G1 X51.987 Y38.911 E26.39492
G1 X52.139 Y38.544 E26.40945
G1 X52.25 Y38.339 E26.41798
G1 X52.518 Y37.986 E26.4342
G1 X52.607 Y37.884 E26.43915
G1 X52.728 Y37.778 E26.44503
G1 X53.04 Y37.542 E26.45935
G1 X53.28 Y37.405 E26.46946
G1 X53.644 Y37.252 E26.4839
G1 X53.92 Y37.177 E26.49437
G1 X54.304 Y37.125 E26.50855
G1 X54.599 Y37.125 E26.51934
G1 X54.987 Y37.177 E26.53366
G1 X55.264 Y37.252 E26.54416
G1 X55.631 Y37.405 E26.55871
G1 X55.868 Y37.542 E26.56872
G1 X56.18 Y37.778 E26.58303
G1 X56.301 Y37.884 E26.58892
G1 X56.394 Y37.992 E26.59413
G1 X56.63 Y38.304 E26.60845
G1 X56.706 Y38.419 E26.61349
G1 X56.918 Y38.899 E26.63269
G1 X56.996 Y39.192 E26.64378
G1 X57.044 Y39.581 E26.65812
G1 X57.044 Y39.851 E26.668
G1 X56.974 Y40.363 E26.68691
G1 X56.918 Y40.533 E26.69345
G1 X56.766 Y40.892 E26.70772
G1 X56.63 Y41.128 E26.71768
G1 X56.394 Y41.441 E26.73202
G1 X56.289 Y41.561 E26.73786
G1 X55.83 Y41.923 E26.75925
G1 X55.649 Y42.023 E26.76681
G1 X55.264 Y42.183 E26.78207
G1 X54.976 Y42.261 E26.79298
G0 F6000 X54.922 Y41.824
G1 F1200 X54.534 Y41.872 E26.80729
G1 X54.37 Y41.871 E26.81329
G1 X53.986 Y41.823 E26.82744
G1 X53.845 Y41.79 E26.83274
G1 X53.444 Y41.619 E26.84869
G1 X53.31 Y41.542 E26.85435
G1 X52.929 Y41.251 E26.87189
G1 X52.865 Y41.179 E26.87541
G1 X52.623 Y40.858 E26.89012
G1 X52.546 Y40.723 E26.8958
G1 X52.394 Y40.359 E26.91024
G1 X52.348 Y40.186 E26.91678
G1 X52.301 Y39.797 E26.93112
G1 X52.301 Y39.634 E26.93708
G1 X52.349 Y39.25 E26.95124
G1 X52.394 Y39.079 E26.95771
G1 X52.546 Y38.712 E26.97224
G1 X52.612 Y38.589 E26.97735
G1 X52.921 Y38.193 E26.99573
G1 X52.993 Y38.129 E26.99925
G1 X53.306 Y37.893 E27.01359
G1 X53.449 Y37.811 E27.01963
G1 X53.813 Y37.658 E27.03407
G1 X53.979 Y37.613 E27.04036
G1 X54.363 Y37.561 E27.05454
G1 X54.54 Y37.561 E27.06102
G1 X54.928 Y37.613 E27.07534
G1 X55.095 Y37.658 E27.08167
G1 X55.46 Y37.811 E27.09615
G1 X55.603 Y37.893 E27.10218
G1 X55.915 Y38.129 E27.11649
G1 X55.987 Y38.193 E27.12002
G1 X56.325 Y38.638 E27.14046
G1 X56.513 Y39.071 E27.15773
G1 X56.56 Y39.246 E27.16436
G1 X56.608 Y39.635 E27.1787
G1 X56.607 Y39.797 E27.18463
G1 X56.546 Y40.259 E27.20168
G1 X56.513 Y40.361 E27.2056
G1 X56.36 Y40.721 E27.21991
G1 X56.279 Y40.863 E27.22589
G1 X55.98 Y41.247 E27.2437
G1 X55.58 Y41.56 E27.26228
G1 X55.459 Y41.626 E27.26732
G1 X55.095 Y41.777 E27.28174
G1 X54.922 Y41.824 E27.2883
G1 F2400 E26.2883
G1 F240 Z0.52
G0 F6000 X55.628 Y113.096 Z0.52
G1 F240 Z0.2
G1 F2400 E27.2883
G1 F1200 X55.264 Y113.248 E27.30273
G1 X54.976 Y113.324 E27.31363
G1 X54.588 Y113.372 E27.32793
G1 X54.315 Y113.372 E27.33792
G1 X53.931 Y113.324 E27.35208
G1 X53.634 Y113.243 E27.36334
G1 X53.27 Y113.087 E27.37783
G1 X53.065 Y112.972 E27.38643
G1 X52.735 Y112.727 E27.40147
G1 X52.608 Y112.616 E27.40764
G1 X52.514 Y112.508 E27.41288
G1 X52.278 Y112.196 E27.42719
G1 X52.14 Y111.956 E27.43732
G1 X51.988 Y111.592 E27.45175
G1 X51.912 Y111.303 E27.46268
G1 X51.864 Y110.915 E27.47699
G1 X51.864 Y110.643 E27.48694
G1 X51.912 Y110.259 E27.5011
G1 X51.987 Y109.975 E27.51184
G1 X52.139 Y109.607 E27.52641
G1 X52.268 Y109.378 E27.53602
G1 X52.518 Y109.051 E27.55108
G1 X52.733 Y108.838 E27.56216
G1 X53.04 Y108.606 E27.57624
G1 X53.28 Y108.468 E27.58636
G1 X53.697 Y108.296 E27.60287
G1 X53.92 Y108.241 E27.61127
G1 X54.304 Y108.189 E27.62545
G1 X54.599 Y108.189 E27.63624
G1 X54.986 Y108.242 E27.65053
G1 X55.265 Y108.316 E27.66109
G1 X55.648 Y108.476 E27.67628
G1 X55.869 Y108.606 E27.68566
G1 X56.18 Y108.843 E27.69996
G1 X56.287 Y108.935 E27.70513
G1 X56.394 Y109.056 E27.71104
G1 X56.648 Y109.391 E27.72642
G1 X56.766 Y109.604 E27.73533
G1 X56.918 Y109.963 E27.74959
G1 X56.974 Y110.133 E27.75614
G1 X56.997 Y110.256 E27.76072
G1 X57.044 Y110.645 E27.77505
G1 X57.044 Y110.915 E27.78493
G1 X56.996 Y111.304 E27.79927
G1 X56.918 Y111.597 E27.81036
G1 X56.706 Y112.077 E27.82956
G1 X56.63 Y112.192 E27.8346
G1 X56.394 Y112.504 E27.84892
G1 X56.187 Y112.713 E27.85968
G1 X55.875 Y112.952 E27.87406
G1 X55.628 Y113.096 E27.88452
G0 F6000 X55.459 Y112.69
G1 F1200 X55.095 Y112.842 E27.89895
G1 X54.922 Y112.888 E27.9055
G1 X54.534 Y112.935 E27.9198
G1 X54.37 Y112.935 E27.9258
G1 X53.986 Y112.887 E27.93996
G1 X53.808 Y112.839 E27.9467
G1 X53.443 Y112.683 E27.96123
G1 X53.32 Y112.614 E27.96639
G1 X52.921 Y112.308 E27.98478
G1 X52.629 Y111.931 E28.00223
G1 X52.546 Y111.787 E28.00831
G1 X52.394 Y111.423 E28.02274
G1 X52.348 Y111.249 E28.02933
G1 X52.3 Y110.861 E28.04363
G1 X52.301 Y110.698 E28.04959
G1 X52.349 Y110.314 E28.06375
G1 X52.394 Y110.143 E28.07022
G1 X52.545 Y109.775 E28.08477
G1 X52.623 Y109.638 E28.09054
G1 X52.868 Y109.318 E28.10529
G1 X52.998 Y109.189 E28.11199
G1 X53.305 Y108.957 E28.12607
G1 X53.449 Y108.874 E28.13215
G1 X53.845 Y108.71 E28.14783
G1 X53.979 Y108.677 E28.15288
G1 X54.363 Y108.625 E28.16705
G1 X54.54 Y108.625 E28.17353
G1 X54.928 Y108.678 E28.18786
G1 X55.095 Y108.722 E28.19418
G1 X55.471 Y108.879 E28.20908
G1 X55.603 Y108.957 E28.21469
G1 X55.979 Y109.249 E28.23211
G1 X56.043 Y109.321 E28.23563
G1 X56.29 Y109.647 E28.2506
G1 X56.36 Y109.775 E28.25594
G1 X56.513 Y110.135 E28.27025
G1 X56.546 Y110.237 E28.27417
G1 X56.607 Y110.699 E28.29122
G1 X56.608 Y110.861 E28.29715
G1 X56.56 Y111.25 E28.31149
G1 X56.513 Y111.425 E28.31811
G1 X56.325 Y111.858 E28.33539
G1 X56.043 Y112.239 E28.35273
G1 X55.919 Y112.364 E28.35917
G1 X55.607 Y112.604 E28.37357
G1 X55.459 Y112.69 E28.37983
G1 F2400 E27.37983
G1 F240 Z0.52
G0 F6000 X89.23 Y121.344 Z0.52
G1 F240 Z0.2
G1 F2400 E28.37983
G1 F1200 X86.14 Y121.189 E28.49303
G1 X83.173 Y120.843 E28.60231
G1 X80.171 Y120.292 E28.71398
G1 X77.162 Y119.531 E28.82753
G1 X74.255 Y118.582 E28.93941
G1 X71.444 Y117.457 E29.05019
G1 X68.748 Y116.165 E29.15957
G1 X66.05 Y114.649 E29.27279
G1 X63.505 Y112.983 E29.38408
G1 X61.041 Y111.13 E29.49687
G1 X58.785 Y109.186 E29.60583
G1 X56.562 Y107 E29.71989
G1 X54.554 Y104.745 E29.83036
G1 X52.689 Y102.342 E29.94165
G1 X50.966 Y99.796 E30.05413
G1 X49.454 Y97.212 E30.16366
G1 X48.074 Y94.455 E30.27646
G1 X46.902 Y91.648 E30.38775
G1 X45.916 Y88.776 E30.49884
G1 X45.119 Y85.835 E30.61032
G1 X44.513 Y82.84 E30.72212
G1 X44.115 Y79.836 E30.83299
G1 X43.913 Y76.814 E30.9438
G1 X43.914 Y73.679 E31.05849
G1 X44.117 Y70.648 E31.16963
G1 X44.517 Y67.633 E31.28091
G1 X45.109 Y64.706 E31.39016
G1 X45.916 Y61.721 E31.50329
G1 X46.902 Y58.848 E31.61442
G1 X48.099 Y55.992 E31.72772
G1 X49.427 Y53.333 E31.83646
G1 X51.005 Y50.634 E31.95085
G1 X52.711 Y48.124 E32.06188
G1 X54.55 Y45.761 E32.17143
G1 X56.612 Y43.443 E32.28494
G1 X58.785 Y41.31 E32.39634
G1 X61.041 Y39.366 E32.50529
G1 X63.506 Y37.512 E32.61814
G1 X66.088 Y35.825 E32.73098
G1 X68.702 Y34.355 E32.8407
G1 X71.457 Y33.038 E32.95242
G1 X74.261 Y31.916 E33.06292
G1 X77.235 Y30.945 E33.17738
G1 X80.183 Y30.206 E33.28857
G1 X83.173 Y29.653 E33.39982
G1 X86.213 Y29.305 E33.51177
G1 X89.231 Y29.156 E33.62232
G1 X92.308 Y29.207 E33.73491
G1 X95.307 Y29.457 E33.84501
G1 X98.309 Y29.906 E33.95606
G1 X101.274 Y30.551 E34.06708
G1 X104.237 Y31.404 E34.17989
G1 X107.135 Y32.456 E34.29268
G1 X109.901 Y33.671 E34.40321
G1 X112.632 Y35.092 E34.51585
G1 X115.225 Y36.671 E34.62692
G1 X117.695 Y38.406 E34.73735
G1 X120.102 Y40.342 E34.85037
G1 X122.29 Y42.358 E34.95922
G1 X124.43 Y44.607 E35.0728
G1 X126.346 Y46.907 E35.18232
G1 X128.179 Y49.429 E35.29638
G1 X129.804 Y52.012 E35.40803
G1 X131.244 Y54.674 E35.51876
G1 X132.493 Y57.406 E35.62866
G1 X133.59 Y60.28 E35.74121
G1 X134.477 Y63.179 E35.85213
G1 X135.194 Y66.206 E35.96594
G1 X135.684 Y69.142 E36.07484
G1 X135.984 Y72.165 E36.18599
G1 X136.089 Y75.246 E36.29877
G1 X135.983 Y78.341 E36.41207
G1 X135.682 Y81.37 E36.52344
G1 X135.194 Y84.29 E36.63175
G1 X134.481 Y87.313 E36.74539
G1 X133.59 Y90.22 E36.85663
G1 X132.51 Y93.05 E36.96745
G1 X131.244 Y95.826 E37.07907
G1 X129.797 Y98.497 E37.19021
G1 X128.176 Y101.072 E37.30154
G1 X126.346 Y103.588 E37.41536
G1 X124.434 Y105.884 E37.52468
G1 X122.342 Y108.087 E37.63583
G1 X120.102 Y110.154 E37.74734
G1 X117.668 Y112.114 E37.86167
G1 X115.2 Y113.842 E37.9719
G1 X112.61 Y115.418 E38.08282
G1 X109.901 Y116.828 E38.19456
G1 X107.124 Y118.044 E38.30547
G1 X104.275 Y119.079 E38.41637
G1 X101.333 Y119.93 E38.52842
G1 X98.308 Y120.59 E38.64169
G1 X95.307 Y121.043 E38.75273
G1 X92.306 Y121.289 E38.8629
G1 X89.23 Y121.344 E38.97545
G0 F6000 X89.215 Y120.904
G1 F1200 X86.218 Y120.755 E39.08524
G1 X83.232 Y120.407 E39.19522
G1 X80.256 Y119.86 E39.30593
G1 X77.298 Y119.112 E39.41755
G1 X74.459 Y118.188 E39.52679
G1 X71.634 Y117.06 E39.63808
G1 X68.9 Y115.748 E39.74902
G1 X66.266 Y114.265 E39.85962
G1 X63.759 Y112.624 E39.96924
G1 X61.363 Y110.824 E40.07888
G1 X59.041 Y108.823 E40.19103
G1 X56.891 Y106.708 E40.30137
G1 X54.89 Y104.461 E40.41145
G1 X53.033 Y102.067 E40.5223
G1 X51.346 Y99.574 E40.63243
G1 X49.813 Y96.952 E40.74355
G1 X48.476 Y94.277 E40.85296
G1 X47.307 Y91.475 E40.96404
G1 X46.33 Y88.625 E41.07427
G1 X45.547 Y85.73 E41.18399
G1 X44.946 Y82.762 E41.29478
G1 X44.552 Y79.783 E41.40472
G1 X44.353 Y76.788 E41.51454
G1 X44.353 Y73.708 E41.62722
G1 X44.553 Y70.705 E41.73733
G1 X44.941 Y67.765 E41.84583
G1 X45.55 Y64.751 E41.95833
G1 X46.343 Y61.829 E42.0691
