;FLAVOR:Marlin
;TIME:6993
;Filament used: 5.4712m
;Layer height: 0.15
;MINX:90.471
;MINY:86.32
;MINZ:0.2
;MAXX:159.516
;MAXY:122.496
;MAXZ:41
;TARGET_MACHINE.NAME:Prusa i3 Mk3/Mk3s
;Generated with Cura_SteamEngine 5.7.1
M82 ;absolute extrusion mode
G21 ; set units to millimeters
G90 ; use absolute positioning
M82 ; absolute extrusion mode
M104 S215.0 ; set extruder temp
M140 S60 ; set bed temp
M190 S60 ; wait for bed temp
M109 S215.0 ; wait for extruder temp
G28 W ; home all without mesh bed level
G80 ; mesh bed leveling
G92 E0.0 ; reset extruder distance position
G1 Y-3.0 F1000.0 ; go outside print area
G1 X60.0 E9.0 F1000.0 ; intro line
G1 X100.0 E21.5 F1000.0 ; intro line
G92 E0.0 ; reset extruder distance position
G92 E0
G92 E0
G1 F2100 E-0.8
;LAYER_COUNT:273
;LAYER:0
M107
G0 F3600 X94.251 Y95.11 Z0.2
;TYPE:SKIRT
G1 F2100 E0
G1 F1800 X94.767 Y94.679 E0.02236
G1 X95.173 Y94.36 E0.03953
G1 X95.747 Y93.967 E0.06267
G1 X96.39 Y93.569 E0.08782
G1 X96.977 Y93.272 E0.1097
G1 X97.603 Y92.98 E0.13268
G1 X98.536 Y92.644 E0.16566
G1 X99.087 Y92.499 E0.18461
G1 X99.658 Y92.442 E0.2037
G1 X100.683 Y92.423 E0.2378
G1 X111.431 Y92.423 E0.59528
G1 X114.217 Y92.383 E0.68795
G1 X116.934 Y92.268 E0.7784
G1 X119.667 Y92.074 E0.86952
G1 X122.351 Y91.808 E0.95923
G1 X125.075 Y91.46 E1.05057
G1 X127.764 Y91.037 E1.14111
G1 X130.43 Y90.541 E1.2313
G1 X133.079 Y89.974 E1.3214
G1 X135.781 Y89.309 E1.41395
G1 X138.372 Y88.597 E1.50332
G1 X140.986 Y87.796 E1.59425
G1 X143.703 Y86.879 E1.68963
G1 X144.705 Y86.526 E1.72496
G1 X145.255 Y86.385 E1.74385
G1 X145.847 Y86.322 E1.76365
G1 X148.217 Y86.32 E1.84248
G1 X148.92 Y86.33 E1.86586
G1 X149.517 Y86.39 E1.88582
G1 X150.067 Y86.536 E1.90474
G1 X150.585 Y86.767 E1.92361
G1 X151.148 Y87.125 E1.9458
G1 X151.991 Y87.953 E1.9851
G1 X152.936 Y88.91 E2.02983
G1 X153.329 Y89.389 E2.05044
G1 X154.992 Y91.835 E2.14882
G1 X156.232 Y93.95 E2.23036
G1 X158.35 Y97.318 E2.36269
G1 X158.811 Y98.014 E2.39046
G1 X159.175 Y98.711 E2.41661
G1 X159.407 Y99.461 E2.44272
G1 X159.486 Y99.961 E2.45956
G1 X159.516 Y100.563 E2.47961
G1 X159.466 Y101.119 E2.49817
G1 X159.37 Y101.615 E2.51498
G1 X159.123 Y102.307 E2.53941
G1 X158.843 Y102.876 E2.56051
G1 X157.881 Y104.176 E2.6143
G1 X156.243 Y106.452 E2.70756
G1 X154.726 Y108.691 E2.79751
G1 X153.252 Y111.006 E2.88879
G1 X151.872 Y113.313 E2.97821
G1 X150.537 Y115.695 E3.06903
G1 X149.242 Y118.167 E3.16184
G1 X148.627 Y119.399 E3.20764
G1 X148.366 Y119.833 E3.22449
G1 X147.959 Y120.317 E3.24552
G1 X147.526 Y120.684 E3.2644
G1 X147.04 Y120.98 E3.28332
G1 X146.506 Y121.197 E3.3025
G1 X145.884 Y121.335 E3.32369
G1 X143.274 Y121.646 E3.41111
G1 X140.583 Y122.03 E3.50152
G1 X137.741 Y122.375 E3.59674
G1 X136.988 Y122.475 E3.622
G1 X135.779 Y122.496 E3.66222
G1 X123.743 Y122.494 E4.06254
G1 X122.839 Y122.476 E4.09261
G1 X122.057 Y122.413 E4.11871
G1 X121.026 Y122.185 E4.15383
G1 X120.17 Y121.868 E4.18419
G1 X117.688 Y120.755 E4.27466
G1 X115.204 Y119.723 E4.36412
G1 X112.598 Y118.727 E4.45691
G1 X110.072 Y117.842 E4.54594
G1 X107.472 Y117.014 E4.63669
G1 X104.843 Y116.256 E4.72769
G1 X102.208 Y115.578 E4.81819
G1 X99.754 Y115.017 E4.90192
G1 X98.876 Y114.827 E4.93179
G1 X97.874 Y114.485 E4.96701
G1 X97.227 Y114.225 E4.9902
G1 X96.343 Y113.77 E5.02327
G1 X95.76 Y113.408 E5.04609
G1 X95.122 Y112.968 E5.07187
G1 X94.449 Y112.432 E5.10049
G1 X94.07 Y112.078 E5.11773
G1 X93.285 Y111.276 E5.15506
G1 X92.526 Y110.287 E5.19653
G1 X91.896 Y109.27 E5.23631
G1 X91.57 Y108.608 E5.26086
G1 X91.296 Y108.001 E5.28301
G1 X90.864 Y106.738 E5.32741
G1 X90.628 Y105.628 E5.36515
G1 X90.536 Y104.915 E5.38906
G1 X90.479 Y104.215 E5.41242
G1 X90.471 Y103.659 E5.43091
G1 X90.491 Y102.948 E5.45457
G1 X90.545 Y102.376 E5.47368
G1 X90.667 Y101.503 E5.503
G1 X90.914 Y100.482 E5.53794
G1 X91.291 Y99.352 E5.57756
G1 X91.95 Y97.985 E5.62803
G1 X92.575 Y97.011 E5.66652
G1 X93.265 Y96.116 E5.70411
G1 X94.251 Y95.11 E5.75096
G0 F3600 X94.508 Y95.417
G1 F1800 X95.014 Y94.994 E5.7729
G1 X95.42 Y94.675 E5.79007
G1 X95.958 Y94.307 E5.81175
G1 X96.571 Y93.926 E5.83576
G1 X97.146 Y93.635 E5.85719
G1 X97.772 Y93.343 E5.88016
G1 X98.641 Y93.03 E5.91089
G1 X99.128 Y92.897 E5.92768
G1 X99.665 Y92.842 E5.94563
G1 X100.69 Y92.823 E5.97973
G1 X111.437 Y92.823 E6.33717
G1 X114.234 Y92.783 E6.43021
G1 X116.951 Y92.668 E6.52066
G1 X119.698 Y92.473 E6.61226
G1 X122.402 Y92.205 E6.70263
G1 X125.126 Y91.857 E6.79397
G1 X127.826 Y91.432 E6.88488
G1 X130.516 Y90.932 E6.97588
G1 X133.163 Y90.365 E7.06592
G1 X135.887 Y89.695 E7.15922
G1 X138.478 Y88.982 E7.2486
G1 X141.114 Y88.175 E7.34029
G1 X143.831 Y87.258 E7.43566
G1 X144.808 Y86.913 E7.47013
G1 X145.297 Y86.783 E7.48696
G1 X145.889 Y86.72 E7.50676
G1 X148.211 Y86.72 E7.58399
G1 X148.914 Y86.73 E7.60737
G1 X149.417 Y86.777 E7.62417
G1 X149.907 Y86.903 E7.641
G1 X150.37 Y87.105 E7.6578
G1 X150.902 Y87.443 E7.67877
G1 X151.707 Y88.234 E7.7163
G1 X152.627 Y89.164 E7.75981
G1 X152.998 Y89.614 E7.77921
G1 X154.661 Y92.06 E7.87759
G1 X155.893 Y94.163 E7.95865
G1 X158.017 Y97.54 E8.09134
G1 X158.456 Y98.199 E8.11768
G1 X158.82 Y98.896 E8.14383
G1 X159.012 Y99.523 E8.16564
G1 X159.091 Y100.023 E8.18248
G1 X159.118 Y100.528 E8.1993
G1 X159.073 Y101.043 E8.21649
G1 X158.977 Y101.539 E8.23329
G1 X158.764 Y102.131 E8.25422
G1 X158.5 Y102.668 E8.27412
G1 X157.556 Y103.942 E8.32686
G1 X155.919 Y106.218 E8.42011
G1 X154.395 Y108.467 E8.51047
G1 X152.915 Y110.791 E8.60211
G1 X151.523 Y113.117 E8.69226
G1 X150.188 Y115.499 E8.78308
G1 X148.888 Y117.981 E8.87627
G1 X148.284 Y119.193 E8.92131
G1 X148.023 Y119.627 E8.93816
G1 X147.698 Y120.014 E8.95497
G1 X147.315 Y120.344 E8.97178
G1 X146.886 Y120.611 E8.98859
G1 X146.419 Y120.806 E9.00542
G1 X145.797 Y120.944 E9.02661
G1 X143.217 Y121.25 E9.11302
G1 X140.535 Y121.633 E9.20313
G1 X137.693 Y121.978 E9.29835
G1 X136.981 Y122.075 E9.32225
G1 X135.779 Y122.096 E9.36224
G1 X123.751 Y122.094 E9.76229
G1 X122.869 Y122.077 E9.79163
G1 X122.142 Y122.022 E9.81588
G1 X121.165 Y121.81 E9.84913
G1 X120.334 Y121.503 E9.8786
G1 X117.852 Y120.39 E9.96907
G1 X115.347 Y119.349 E10.05929
G1 X112.741 Y118.354 E10.15207
G1 X110.193 Y117.461 E10.24187
G1 X107.593 Y116.633 E10.33263
G1 X104.949 Y115.87 E10.42415
G1 X102.297 Y115.188 E10.51523
G1 X99.839 Y114.626 E10.59909
G1 X98.961 Y114.436 E10.62897
G1 X98.022 Y114.113 E10.662
G1 X97.41 Y113.869 E10.68391
G1 X96.554 Y113.43 E10.71591
G1 X95.987 Y113.079 E10.73809
G1 X95.371 Y112.655 E10.76296
G1 X94.722 Y112.139 E10.79054
G1 X94.356 Y111.798 E10.80718
G1 X93.571 Y110.996 E10.8445
G1 X92.866 Y110.076 E10.88305
G1 X92.236 Y109.059 E10.92284
G1 X91.935 Y108.443 E10.94565
G1 X91.661 Y107.836 E10.9678
G1 X91.255 Y106.654 E11.00936
G1 X91.025 Y105.577 E11.04599
G1 X90.935 Y104.883 E11.06927
G1 X90.878 Y104.183 E11.09263
G1 X90.871 Y103.67 E11.10969
G1 X90.891 Y102.959 E11.13335
G1 X90.941 Y102.431 E11.15099
G1 X91.056 Y101.597 E11.17899
G1 X91.294 Y100.608 E11.21282
G1 X91.652 Y99.525 E11.25076
G1 X92.287 Y98.201 E11.2996
G1 X92.892 Y97.255 E11.33695
G1 X93.582 Y96.36 E11.37454
G1 X94.508 Y95.417 E11.41849
G1 F2100 E10.61849
G0 F3600 X93.404 Y103.202
G0 X93.404 Y104.164
G0 X93.51 Y105.12
G0 X93.722 Y106.059
G0 X94.037 Y106.969
G0 X94.451 Y107.838
G0 X94.96 Y108.655
G0 X95.554 Y109.412
G0 X96.23 Y110.097
G0 X96.977 Y110.704
G0 X97.788 Y111.224
G0 X98.651 Y111.651
G0 X99.533 Y111.971
G0 X114.096 Y112.243
G1 F2100 E11.41849
G1 F1800 X115.28 Y112.243 E11.45787
G1 X115.545 Y112.271 E11.46674
G1 X115.763 Y112.339 E11.47433
G1 X115.955 Y112.447 E11.48166
G1 X116.123 Y112.595 E11.48911
G1 X116.293 Y112.817 E11.49841
G1 X116.967 Y113.929 E11.54166
G1 X116.771 Y114.094 E11.55018
G1 X116.064 Y113.477 E11.58139
G1 X116.038 Y113.458 E11.58246
G1 X115.394 Y113.058 E11.60767
G1 X115.375 Y113.048 E11.60839
G1 X114.682 Y112.715 E11.63396
G1 X114.661 Y112.706 E11.63472
G1 X114.054 Y112.492 E11.65613
G1 X114.096 Y112.243 E11.66453
G1 F2100 E10.86453
G0 F3600 X115.565 Y112.696
G1 F2100 E11.66453
G1 F1800 X115.604 Y112.708 E11.66588
G1 X115.72 Y112.774 E11.67032
G1 X115.781 Y112.827 E11.67301
G1 X115.605 Y112.718 E11.67989
G1 X115.565 Y112.696 E11.68141
G1 F2100 E10.88141
G0 F3600 X119.755 Y117.984
G0 X120.7 Y118.834
G0 X121.852 Y119.375
G0 X123.067 Y119.558
G0 X136.729 Y119.56
G0 X137.999 Y119.272
G0 X140.071 Y118.012
G1 F2100 E11.68141
G1 F1800 X145.714 Y112.369 E11.94684
G1 X145.921 Y112.512 E11.95521
G1 X145.634 Y113.148 E11.97842
G1 X145.623 Y113.178 E11.97948
G1 X145.436 Y113.87 E12.00332
G1 X145.432 Y113.889 E12.00397
G1 X145.314 Y114.601 E12.02797
G1 X145.311 Y114.626 E12.02881
G1 X145.246 Y116.161 E12.07991
G1 X145.246 Y116.167 E12.08011
G1 X145.229 Y117.579 E12.12708
G1 X142.362 Y117.605 E12.22244
G1 X142.328 Y117.608 E12.22357
G1 X141.318 Y117.793 E12.25772
G1 X141.284 Y117.803 E12.2589
G1 X140.445 Y118.117 E12.2887
G1 X140.436 Y118.12 E12.28901
G1 X140.211 Y118.217 E12.29716
G1 X140.071 Y118.012 E12.30542
G1 F2100 E11.50542
G0 F3600 X141.25 Y117.399
G1 F2100 E12.30542
G1 F1800 X145.111 Y113.538 E12.48703
G1 X145.05 Y113.765 E12.49485
G1 X145.037 Y113.824 E12.49686
G1 X144.919 Y114.536 E12.52086
G1 X144.912 Y114.609 E12.5233
G1 X144.847 Y116.144 E12.5744
G1 X144.846 Y116.162 E12.575
G1 X144.834 Y117.182 E12.60893
G1 X142.359 Y117.205 E12.69125
G1 X142.256 Y117.215 E12.69469
G1 X141.25 Y117.399 E12.72871
G1 F2100 E11.92871
G0 F3600 X142.411 Y116.804
G1 F2100 E12.72871
G1 F1800 X144.507 Y114.708 E12.8273
G1 X144.447 Y116.127 E12.87453
G1 X144.446 Y116.157 E12.87553
G1 X144.439 Y116.786 E12.89645
G1 X142.411 Y116.804 E12.96391
G1 F2100 E12.16391
G0 F3600 X156.377 Y101.301
G0 X156.601 Y100.466
G0 X156.378 Y99.634
G0 X155.761 Y99.017
G0 X144.818 Y97.767
G1 F2100 E12.96391
G1 F1800 X144.74 Y97.674 E12.96795
G1 X144.628 Y97.56 E12.97326
G1 X144.133 Y97.132 E12.99503
G1 X143.695 Y96.418 E13.02289
G1 X143.68 Y96.392 E13.02388
G1 X143.5 Y96.118 E13.03479
G1 X143.38 Y95.762 E13.04728
G1 X143.37 Y95.696 E13.0495
G1 X143.372 Y94.938 E13.07471
G1 X143.506 Y94.447 E13.09164
G1 X145.16 Y92.313 E13.18144
G1 X145.225 Y92.198 E13.18584
G1 X145.235 Y92.193 E13.18621
G1 X145.763 Y91.76 E13.20892
G1 X145.861 Y91.668 E13.21339
G1 X146.557 Y90.92 E13.24737
G1 X148.203 Y90.92 E13.30212
G1 X148.541 Y91.337 E13.31997
G1 X148.639 Y91.442 E13.32475
G1 X149.409 Y92.154 E13.35963
G1 X149.55 Y92.252 E13.36534
G1 X149.909 Y92.771 E13.38633
G1 X149.976 Y92.858 E13.38998
G1 X150.424 Y93.374 E13.41271
G1 X151.117 Y94.306 E13.45134
G1 X151.32 Y94.708 E13.46632
G1 X151.366 Y94.978 E13.47543
G1 X151.362 Y95.704 E13.49958
G1 X151.231 Y96.161 E13.51539
G1 X151.217 Y96.185 E13.51631
G1 X150.421 Y97.126 E13.55731
G1 X149.799 Y97.767 E13.58701
G1 X144.818 Y97.767 E13.75268
G0 F3600 X144.433 Y97.931
G1 F1800 X144.366 Y97.863 E13.75586
G1 X143.826 Y97.396 E13.7796
G1 X143.354 Y96.627 E13.80961
G1 X143.345 Y96.612 E13.81019
G1 X143.139 Y96.298 E13.82268
G1 X142.991 Y95.86 E13.83806
G1 X142.97 Y95.72 E13.84277
G1 X142.972 Y94.887 E13.87048
G1 X143.143 Y94.263 E13.892
G1 X144.844 Y92.068 E13.98436
G1 X144.921 Y91.919 E13.98994
G1 X144.981 Y91.884 E13.99225
G1 X145.509 Y91.451 E14.01496
G1 X145.568 Y91.396 E14.01764
G1 X146.309 Y90.6 E14.05381
G1 X146.36 Y90.52 E14.05697
G1 X148.398 Y90.52 E14.12475
G1 X148.406 Y90.534 E14.12529
G1 X148.852 Y91.085 E14.14886
G1 X148.911 Y91.149 E14.15176
G1 X149.681 Y91.861 E14.18664
G1 X149.848 Y91.966 E14.1932
G1 X149.877 Y92.021 E14.19527
G1 X150.238 Y92.543 E14.21638
G1 X150.278 Y92.596 E14.21859
G1 X150.74 Y93.127 E14.242
G1 X151.458 Y94.094 E14.28206
G1 X151.703 Y94.581 E14.30019
G1 X151.767 Y94.945 E14.31248
G1 X151.762 Y95.76 E14.33959
G1 X151.6 Y96.322 E14.35904
G1 X151.546 Y96.415 E14.36262
G1 X150.718 Y97.395 E14.40529
G1 X149.969 Y98.167 E14.44107
G1 X144.631 Y98.167 E14.61861
G1 X144.433 Y97.931 E14.62885
G0 F3600 X144.127 Y98.188
G1 F1800 X144.105 Y98.166 E14.62989
G1 X143.517 Y97.658 E14.65573
G1 X143.013 Y96.836 E14.6878
G1 X143.011 Y96.831 E14.68798
G1 X142.775 Y96.472 E14.70227
G1 X142.6 Y95.953 E14.72049
G1 X142.57 Y95.75 E14.72731
G1 X142.572 Y94.832 E14.75785
G1 X142.777 Y94.081 E14.78374
G1 X144.528 Y91.823 E14.87878
G1 X144.57 Y91.7 E14.8831
G1 X144.57 Y91.62 E14.88576
G1 X144.601 Y91.62 E14.88679
G1 X144.728 Y91.575 E14.89127
G1 X145.256 Y91.142 E14.91398
G1 X145.275 Y91.123 E14.91488
G1 X146.016 Y90.327 E14.95105
G1 X146.07 Y90.191 E14.95591
G1 X146.07 Y90.12 E14.95828
G1 X148.672 Y90.12 E15.04482
G1 X148.672 Y90.157 E15.04605
G1 X148.717 Y90.283 E15.0505
G1 X149.163 Y90.834 E15.07408
G1 X149.182 Y90.855 E15.07502
G1 X149.952 Y91.567 E15.1099
G1 X150.088 Y91.62 E15.11476
G1 X150.17 Y91.62 E15.11748
G1 X150.17 Y91.68 E15.11948
G1 X150.206 Y91.794 E15.12345
G1 X150.567 Y92.316 E15.14456
G1 X150.58 Y92.333 E15.14528
G1 X151.047 Y92.87 E15.16895
G1 X151.798 Y93.881 E15.21083
G1 X152.087 Y94.455 E15.23221
G1 X152.167 Y94.912 E15.24764
G1 X152.161 Y95.819 E15.27781
G1 X151.973 Y96.477 E15.30057
G1 X151.873 Y96.647 E15.30713
G1 X151.007 Y97.672 E15.35176
G1 X150.246 Y98.456 E15.3881
G1 X150.222 Y98.487 E15.3894
G1 X150.171 Y98.567 E15.39256
G1 X144.445 Y98.567 E15.583
G1 X144.127 Y98.188 E15.59946
G1 F2100 E14.79946
G0 F3600 X145.014 Y97.364
;TYPE:SUPPORT
G1 F2100 E15.59946
G1 F1800 X144.457 Y96.881 E15.62398
G1 X144.409 Y96.768 E15.62806
G1 X143.862 Y95.939 E15.6611
G1 X143.772 Y95.671 E15.6705
G1 X143.772 Y94.987 E15.69325
G1 X143.867 Y94.631 E15.70551
G1 X145.573 Y92.433 E15.79805
G1 X146.08 Y92.015 E15.8199
G1 X146.731 Y91.321 E15.85155
G1 X148.012 Y91.32 E15.89416
G1 X148.304 Y91.68 E15.90958
G1 X149.307 Y92.604 E15.95493
G1 X149.61 Y93.049 E15.97284
G1 X150.116 Y93.634 E15.99857
G1 X150.776 Y94.522 E16.03536
G1 X150.963 Y94.896 E16.04927
G1 X150.96 Y95.647 E16.07425
G1 X150.867 Y95.975 E16.08559
G1 X150.111 Y96.869 E16.12453
G1 X149.631 Y97.364 E16.14746
G1 X145.014 Y97.364 E16.30103
G1 F2100 E15.50103
G0 F3600 X144.101 Y96.012
G1 F2100 E16.30103
G1 F1800 X150.625 Y96.012 E16.51802
G1 F2100 E15.71802
G0 F3600 X149.352 Y97.204
G1 F2100 E16.51802
G1 F1800 X149.352 Y92.955 E16.65934
G0 F3600 X149.656 Y93.345
G1 F1800 X145.068 Y93.345 E16.81194
G1 F2100 E16.01194
G0 F3600 X144.018 Y94.697
G1 F2100 E16.81194
G1 F1800 X144.018 Y95.885 E16.85145
G1 F2100 E16.05145
G0 F3600 X146.685 Y97.204
G1 F2100 E16.85145
G1 F1800 X146.685 Y91.604 E17.03771
G1 F2100 E16.23771
G0 F3600 X156.108 Y99.281
G0 X156.544 Y100.035
G0 X156.544 Y100.898
G0 X144.066 Y115.707
G1 F2100 E17.03771
G1 F1855.7 X144.037 Y116.391 E17.05979
G1 X143.374 Y116.4 E17.08118
G1 X144.066 Y115.707 E17.11278
G1 F2100 E16.31278
;MESH:end_effector.stl
G0 F3600 X142.288 Y113.929
G0 X116.966 Y110.952
G0 X116.821 Y111.211
;TYPE:WALL-INNER
G1 F2100 E17.11278
G1 F1800 X117.246 Y111.592 E17.13176
G1 X117.525 Y111.963 E17.1472
G1 X120.465 Y116.804 E17.33558
G1 X120.734 Y117.178 E17.35091
G1 X121.039 Y117.492 E17.36547
G1 X121.407 Y117.78 E17.38101
G1 X121.791 Y117.998 E17.39569
G1 X122.212 Y118.155 E17.41064
G1 X122.662 Y118.257 E17.42599
G1 X123.116 Y118.292 E17.44113
G1 X136.627 Y118.296 E17.89051
G1 X137.097 Y118.225 E17.90632
G1 X137.527 Y118.092 E17.92129
G1 X137.959 Y117.883 E17.93725
G1 X138.323 Y117.635 E17.9519
G1 X155.187 Y100.771 E18.74513
G1 X155.31 Y100.568 E18.75302
G1 X155.273 Y100.271 E18.76298
G1 X155.121 Y100.119 E18.77013
G1 X154.893 Y100.064 E18.77793
G1 X132.006 Y100.063 E19.53915
G1 X129.893 Y99.201 E19.61506
G1 X129.775 Y99.108 E19.62005
G1 X128.206 Y97.172 E19.70294
G1 X127.957 Y96.926 E19.71458
G1 X127.7 Y96.765 E19.72466
G1 X127.398 Y96.661 E19.73529
G1 X127.07 Y96.625 E19.74626
G1 X99.851 Y96.621 E20.65157
G1 X99.153 Y96.877 E20.6763
G1 X98.412 Y97.24 E20.70374
G1 X97.713 Y97.691 E20.73141
G1 X97.084 Y98.202 E20.75836
G1 X96.499 Y98.794 E20.78605
G1 X95.997 Y99.433 E20.81307
G1 X95.564 Y100.128 E20.84031
G1 X95.213 Y100.872 E20.86767
G1 X94.938 Y101.658 E20.89537
G1 X94.757 Y102.459 E20.92268
G1 X94.669 Y103.277 E20.95004
G1 X94.668 Y104.087 E20.97698
G1 X94.757 Y104.905 E21.00435
G1 X94.938 Y105.706 E21.03166
G1 X95.212 Y106.491 E21.05932
G1 X95.564 Y107.232 E21.0866
G1 X95.997 Y107.931 E21.11395
G1 X96.499 Y108.57 E21.14098
