;FLAVOR:Marlin
;TIME:10003
;Filament used: 6.65875m
;Layer height: 0.15
;MINX:107.586
;MINY:84.321
;MINZ:0.2
;MAXX:142.414
;MAXY:125.679
;MAXZ:69.35
;TARGET_MACHINE.NAME:Prusa i3 Mk3/Mk3s
;Generated with Cura_SteamEngine 5.7.1
M82 ;absolute extrusion mode
G21 ; set units to millimeters
G90 ; use absolute positioning
M82 ; absolute extrusion mode
M104 S215.0 ; set extruder temp
M140 S60 ; set bed temp
M190 S60 ; wait for bed temp
M109 S215.0 ; wait for extruder temp
G28 W ; home all without mesh bed level
G80 ; mesh bed leveling
G92 E0.0 ; reset extruder distance position
G1 Y-3.0 F1000.0 ; go outside print area
G1 X60.0 E9.0 F1000.0 ; intro line
G1 X100.0 E21.5 F1000.0 ; intro line
G92 E0.0 ; reset extruder distance position
G92 E0
G92 E0
G1 F2100 E-0.8
;LAYER_COUNT:462
;LAYER:0
M107
G0 F3600 X108.361 Y89.238 Z0.2
;TYPE:SKIRT
G1 F2100 E0
G1 F1800 X108.727 Y88.803 E0.01891
G1 X109.161 Y88.428 E0.03799
G1 X109.8 Y88.039 E0.06287
G1 X110.32 Y87.806 E0.08182
G1 X110.808 Y87.671 E0.09866
G1 X113.804 Y87.089 E0.20017
G1 X116.47 Y86.491 E0.29104
G1 X119.135 Y85.813 E0.38251
G1 X122.218 Y84.926 E0.48921
G1 X123.534 Y84.525 E0.53496
G1 X124.415 Y84.371 E0.56471
G1 X125.04 Y84.321 E0.58556
G1 X125.593 Y84.328 E0.60396
G1 X126.182 Y84.387 E0.62365
G1 X127.176 Y84.575 E0.65729
G1 X130.126 Y85.484 E0.75996
G1 X132.751 Y86.212 E0.85057
G1 X135.401 Y86.866 E0.94135
G1 X138.108 Y87.454 E1.03349
G1 X139.204 Y87.672 E1.07065
G1 X139.744 Y87.827 E1.08934
G1 X140.203 Y88.031 E1.10604
G1 X140.73 Y88.338 E1.12633
G1 X141.17 Y88.699 E1.14526
G1 X141.553 Y89.134 E1.16454
G1 X141.956 Y89.795 E1.19029
G1 X142.206 Y90.361 E1.21087
G1 X142.349 Y90.913 E1.22983
G1 X142.403 Y91.47 E1.24844
G1 X142.414 Y92.094 E1.2692
G1 X142.412 Y117.808 E2.12445
G1 X142.402 Y118.531 E2.1485
G1 X142.342 Y119.129 E2.16849
G1 X142.196 Y119.678 E2.18739
G1 X141.957 Y120.226 E2.20727
G1 X141.643 Y120.757 E2.22779
G1 X141.321 Y121.147 E2.24461
G1 X140.844 Y121.568 E2.26577
G1 X140.2 Y121.961 E2.29086
G1 X139.571 Y122.25 E2.31389
G1 X138.236 Y122.532 E2.35927
G1 X137.252 Y122.725 E2.39262
G1 X134.587 Y123.326 E2.48348
G1 X131.97 Y123.994 E2.57332
G1 X129.305 Y124.756 E2.66551
G1 X128.152 Y125.123 E2.70575
G1 X126.837 Y125.517 E2.75141
G1 X125.707 Y125.676 E2.78936
G1 X124.771 Y125.679 E2.8205
G1 X124.101 Y125.622 E2.84286
G1 X123.242 Y125.398 E2.87239
G1 X122.417 Y125.155 E2.90099
G1 X121.093 Y124.746 E2.94708
G1 X118.506 Y124.028 E3.03638
G1 X115.848 Y123.368 E3.12747
G1 X113.151 Y122.781 E3.21927
G1 X110.838 Y122.337 E3.29761
G1 X110.263 Y122.174 E3.31748
G1 X109.724 Y121.931 E3.33715
G1 X109.237 Y121.638 E3.35605
G1 X108.802 Y121.272 E3.37496
G1 X108.426 Y120.837 E3.39408
G1 X108.053 Y120.225 E3.41792
G1 X107.8 Y119.662 E3.43845
G1 X107.655 Y119.11 E3.45743
G1 X107.596 Y118.527 E3.47692
G1 X107.586 Y117.838 E3.49984
G1 X107.588 Y92.133 E4.35479
G1 X107.598 Y91.464 E4.37705
G1 X107.659 Y90.867 E4.39701
G1 X107.806 Y90.316 E4.41597
G1 X108.068 Y89.725 E4.43748
G1 X108.361 Y89.238 E4.45638
G0 F3600 X108.669 Y89.493
G1 F1800 X108.991 Y89.103 E4.4732
G1 X109.37 Y88.769 E4.49
G1 X109.967 Y88.403 E4.51329
G1 X110.427 Y88.192 E4.53013
G1 X110.915 Y88.057 E4.54697
G1 X113.88 Y87.481 E4.64743
G1 X116.569 Y86.879 E4.73908
G1 X119.234 Y86.2 E4.83055
G1 X122.329 Y85.31 E4.93766
G1 X123.604 Y84.919 E4.98201
G1 X124.448 Y84.77 E5.01052
G1 X125.036 Y84.721 E5.03014
G1 X125.554 Y84.726 E5.04737
G1 X126.109 Y84.78 E5.06592
G1 X127.058 Y84.957 E5.09803
G1 X130.008 Y85.866 E5.2007
G1 X132.655 Y86.6 E5.29206
G1 X135.316 Y87.257 E5.38322
G1 X138.023 Y87.845 E5.47536
G1 X139.096 Y88.057 E5.51174
G1 X139.582 Y88.193 E5.52852
G1 X140.041 Y88.397 E5.54523
G1 X140.479 Y88.649 E5.56203
G1 X140.873 Y88.967 E5.57887
G1 X141.211 Y89.342 E5.59567
G1 X141.614 Y90.003 E5.62141
G1 X141.82 Y90.465 E5.63824
G1 X141.951 Y90.953 E5.65505
G1 X142.003 Y91.477 E5.67256
G1 X142.014 Y92.094 E5.69308
G1 X142.012 Y117.802 E6.54814
G1 X142.002 Y118.525 E6.57218
G1 X141.955 Y119.029 E6.58902
G1 X141.829 Y119.518 E6.60582
G1 X141.59 Y120.066 E6.6257
G1 X141.335 Y120.502 E6.6425
G1 X141.013 Y120.892 E6.65932
G1 X140.635 Y121.227 E6.67612
G1 X140.033 Y121.597 E6.69962
G1 X139.44 Y121.869 E6.72132
G1 X138.159 Y122.139 E6.76486
G1 X137.175 Y122.332 E6.79822
G1 X134.488 Y122.938 E6.88983
G1 X131.866 Y123.607 E6.97983
G1 X129.195 Y124.371 E7.07223
G1 X128.036 Y124.74 E7.11269
G1 X126.78 Y125.121 E7.15634
G1 X125.705 Y125.276 E7.19247
G1 X124.801 Y125.28 E7.22253
G1 X124.202 Y125.235 E7.24251
G1 X123.355 Y125.014 E7.27163
G1 X122.535 Y124.773 E7.30005
G1 X121.211 Y124.364 E7.34614
G1 X118.602 Y123.64 E7.4362
G1 X115.933 Y122.977 E7.52767
G1 X113.236 Y122.39 E7.61947
G1 X110.913 Y121.944 E7.69815
G1 X110.426 Y121.809 E7.71495
G1 X109.927 Y121.586 E7.73313
G1 X109.492 Y121.33 E7.74992
G1 X109.102 Y121.008 E7.76674
G1 X108.768 Y120.629 E7.78354
G1 X108.395 Y120.017 E7.80738
G1 X108.186 Y119.557 E7.82419
G1 X108.053 Y119.069 E7.84101
G1 X107.996 Y118.521 E7.85933
G1 X107.986 Y117.838 E7.88205
G1 X107.988 Y92.139 E8.73681
G1 X107.998 Y91.47 E8.75906
G1 X108.046 Y90.967 E8.77586
G1 X108.172 Y90.477 E8.79269
G1 X108.413 Y89.928 E8.81263
G1 X108.669 Y89.493 E8.82942
G1 F2100 E8.02942
G0 F3600 X115.65 Y95.65
G1 F2100 E8.82942
G1 F1800 X134.35 Y95.65 E9.45139
G1 X134.35 Y114.35 E10.07335
G1 X115.65 Y114.35 E10.69532
G1 X115.65 Y95.65 E11.31728
G0 F3600 X116.05 Y96.05
G1 F1800 X133.95 Y96.05 E11.91264
G1 X133.95 Y113.95 E12.50799
G1 X116.05 Y113.95 E13.10335
G1 X116.05 Y96.05 E13.69871
G0 F3600 X116.45 Y96.45
G1 F1800 X133.55 Y96.45 E14.26745
G1 X133.55 Y113.55 E14.8362
G1 X116.45 Y113.55 E15.40495
G1 X116.45 Y96.45 E15.9737
G1 F2100 E15.1737
G0 F3600 X121.544 Y90.681
G1 F2100 E15.9737
G1 F1800 X121.506 Y90.426 E15.98227
G1 X121.758 Y90.348 E15.99105
G1 X121.795 Y90.332 E15.99239
G1 X122.146 Y90.14 E16.0057
G1 X122.179 Y90.118 E16.00701
G1 X122.488 Y89.858 E16.02045
G1 X122.519 Y89.825 E16.02195
G1 X122.821 Y89.423 E16.03867
G1 X122.835 Y89.402 E16.03951
G1 X123.043 Y89.036 E16.05352
G1 X123.242 Y88.82 E16.06328
G1 X123.653 Y88.51 E16.08041
G1 X123.917 Y88.378 E16.09022
G1 X124.475 Y88.198 E16.10972
G1 X125.041 Y88.108 E16.12879
G1 X125.507 Y88.116 E16.14429
G1 X126.228 Y88.251 E16.16869
G1 X127.158 Y88.715 E16.20325
G1 X127.537 Y89.103 E16.22129
G1 X127.755 Y89.528 E16.23718
G1 X127.78 Y89.566 E16.23869
G1 X128.036 Y89.87 E16.25191
G1 X128.064 Y89.897 E16.25321
G1 X128.375 Y90.147 E16.26648
G1 X128.409 Y90.169 E16.26782
G1 X128.768 Y90.353 E16.28124
G1 X128.804 Y90.367 E16.28253
G1 X129.003 Y90.424 E16.28941
G1 X128.966 Y90.682 E16.29808
G1 X121.544 Y90.681 E16.54494
G1 F2100 E15.74494
G0 F3600 X122.606 Y90.281
G1 F2100 E16.54494
G1 F1800 X122.745 Y90.164 E16.55098
G1 X122.839 Y90.065 E16.55552
G1 X123.141 Y89.663 E16.57224
G1 X123.183 Y89.599 E16.57479
G1 X123.368 Y89.273 E16.58726
G1 X123.512 Y89.117 E16.59432
G1 X123.867 Y88.849 E16.60911
G1 X124.064 Y88.751 E16.61643
G1 X124.569 Y88.589 E16.63407
G1 X125.07 Y88.509 E16.65094
G1 X125.468 Y88.515 E16.66418
G1 X126.099 Y88.634 E16.68554
G1 X126.921 Y89.044 E16.71609
G1 X127.207 Y89.337 E16.72971
G1 X127.399 Y89.711 E16.74369
G1 X127.474 Y89.823 E16.74818
G1 X127.73 Y90.127 E16.76139
G1 X127.813 Y90.209 E16.76528
G1 X127.904 Y90.282 E16.76916
G1 X122.606 Y90.281 E16.94537
G0 F3600 X123.476 Y89.881
G1 F1800 X123.531 Y89.796 E16.94874
G1 X123.693 Y89.51 E16.95967
G1 X123.781 Y89.415 E16.96397
G1 X124.077 Y89.192 E16.9763
G1 X124.215 Y89.122 E16.98145
G1 X124.664 Y88.978 E16.99713
G1 X125.098 Y88.909 E17.01175
G1 X125.428 Y88.915 E17.02272
G1 X125.97 Y89.017 E17.04107
G1 X126.681 Y89.371 E17.06748
G1 X126.88 Y89.574 E17.07694
G1 X127.037 Y89.882 E17.08844
G1 X123.476 Y89.881 E17.20688
G1 F2100 E16.40688
G0 F3600 X111.51 Y90.908
G0 X110.907 Y91.603
G0 X110.908 Y118.49
G0 X111.527 Y119.059
G0 X121.511 Y119.318
G1 F2100 E17.20688
G1 F1800 X129.076 Y119.319 E17.45849
G1 X129.114 Y119.574 E17.46706
G1 X128.862 Y119.652 E17.47584
G1 X128.825 Y119.668 E17.47718
G1 X128.474 Y119.86 E17.49049
G1 X128.441 Y119.882 E17.49181
G1 X128.131 Y120.144 E17.50531
G1 X128.103 Y120.173 E17.50665
G1 X127.861 Y120.478 E17.5196
G1 X127.841 Y120.509 E17.52082
G1 X127.675 Y120.825 E17.53269
G1 X127.354 Y121.16 E17.54813
G1 X126.355 Y121.682 E17.58562
G1 X126.04 Y121.803 E17.59684
G1 X125.398 Y121.895 E17.61841
G1 X124.788 Y121.89 E17.6387
G1 X124.192 Y121.725 E17.65927
G1 X123.242 Y121.219 E17.69507
G1 X122.986 Y120.974 E17.70685
G1 X122.665 Y120.418 E17.72821
G1 X122.641 Y120.385 E17.72956
G1 X122.37 Y120.081 E17.74311
G1 X122.341 Y120.054 E17.74443
G1 X122.026 Y119.817 E17.75754
G1 X121.992 Y119.796 E17.75887
G1 X121.625 Y119.621 E17.77239
G1 X121.59 Y119.609 E17.77362
G1 X121.478 Y119.58 E17.77747
G1 X121.511 Y119.318 E17.78625
G1 F2100 E16.98625
G0 F3600 X122.56 Y119.718
G1 F2100 E17.78625
G1 F1800 X128.015 Y119.719 E17.96769
G1 X127.873 Y119.839 E17.97387
G1 X127.79 Y119.924 E17.97782
G1 X127.548 Y120.229 E17.99077
G1 X127.486 Y120.324 E17.99454
G1 X127.347 Y120.589 E18.0045
G1 X127.111 Y120.836 E18.01586
G1 X126.184 Y121.32 E18.05064
G1 X125.942 Y121.413 E18.05926
G1 X125.37 Y121.495 E18.07848
G1 X124.842 Y121.491 E18.09605
G1 X124.343 Y121.352 E18.11327
G1 X123.48 Y120.892 E18.1458
G1 X123.305 Y120.725 E18.15385
G1 X123.012 Y120.218 E18.17332
G1 X122.94 Y120.119 E18.17739
G1 X122.669 Y119.815 E18.19094
G1 X122.582 Y119.735 E18.19487
G1 X122.56 Y119.718 E18.19579
G0 F3600 X123.416 Y120.118
G1 F1800 X127.145 Y120.119 E18.31982
G1 X127.132 Y120.138 E18.32059
G1 X127.019 Y120.354 E18.3287
G1 X126.867 Y120.512 E18.33599
G1 X126.022 Y120.953 E18.36769
G1 X125.841 Y121.023 E18.37414
G1 X125.343 Y121.094 E18.39088
G1 X124.9 Y121.091 E18.40561
G1 X124.489 Y120.977 E18.4198
G1 X123.715 Y120.565 E18.44896
G1 X123.622 Y120.476 E18.45324
G1 X123.416 Y120.118 E18.46698
G1 F2100 E17.66698
G0 F3600 X125.769 Y120.57
;TYPE:SUPPORT
G1 F2100 E18.46698
G1 F1333.3 X124.96 Y120.602 E18.50333
G1 F2100 E17.70333
G0 F3600 X116.848 Y113.148
G1 F2100 E18.50333
G1 F1800 X116.848 Y96.848 E19.04547
G1 X133.148 Y96.848 E19.58761
G1 X133.148 Y113.148 E20.12975
G1 X116.848 Y113.148 E20.67189
G0 F3600 X117.348 Y112.988
G1 F1800 X117.348 Y97.008 E21.20339
G1 F2100 E20.40339
G0 F3600 X117.008 Y98.679
G1 F2100 E21.20339
G1 F1800 X132.988 Y98.679 E21.73489
G1 F2100 E20.93489
G0 F3600 X132.988 Y101.346
G1 F2100 E21.73489
G1 F1800 X117.008 Y101.346 E22.26638
G1 F2100 E21.46638
G0 F3600 X117.008 Y104.013
G1 F2100 E22.26638
G1 F1800 X132.988 Y104.013 E22.79788
G1 F2100 E21.99788
G0 F3600 X132.988 Y106.68
G1 F2100 E22.79788
G1 F1800 X117.008 Y106.68 E23.32938
G1 F2100 E22.52938
G0 F3600 X117.008 Y109.347
G1 F2100 E23.32938
G1 F1800 X132.988 Y109.347 E23.86087
G1 F2100 E23.06087
G0 F3600 X132.988 Y112.014
G1 F2100 E23.86087
G1 F1800 X117.008 Y112.014 E24.39237
G1 F2100 E23.59237
G0 F3600 X120.015 Y112.988
G1 F2100 E24.39237
G1 F1800 X120.015 Y97.008 E24.92387
G1 F2100 E24.12387
G0 F3600 X122.682 Y97.008
G1 F2100 E24.92387
G1 F1800 X122.682 Y112.988 E25.45537
G1 F2100 E24.65537
G0 F3600 X125.349 Y112.988
G1 F2100 E25.45537
G1 F1800 X125.349 Y97.008 E25.98686
G1 F2100 E25.18686
G0 F3600 X128.016 Y97.008
G1 F2100 E25.98686
G1 F1800 X128.016 Y112.988 E26.51836
G1 F2100 E25.71836
G0 F3600 X130.683 Y112.988
G1 F2100 E26.51836
G1 F1800 X130.683 Y97.008 E27.04986
G1 F2100 E26.24986
G0 F3600 X124.788 Y89.421
G1 F2100 E27.04986
G1 F1323.5 X125.384 Y89.396 E27.07684
G1 F2100 E26.27684
;MESH:servo-holder3.stl
G0 F3600 X125.382 Y92.001
G0 X135.678 Y94.322
G0 X136.15 Y115.673
G0 X135.673 Y115.673
;TYPE:WALL-INNER
G1 F2100 E27.07684
G1 F1800 X135.487 Y115.799 E27.08431
G1 X135.326 Y115.848 E27.08991
G1 X114.748 Y115.848 E27.77434
G1 X114.509 Y115.799 E27.78245
G1 X114.323 Y115.673 E27.78992
G1 X114.197 Y115.487 E27.79739
G1 X114.148 Y115.326 E27.80299
G1 X114.148 Y94.748 E28.48742
G1 X114.197 Y94.509 E28.49553
G1 X114.323 Y94.323 E28.50301
G1 X114.509 Y94.197 E28.51048
G1 X114.67 Y94.148 E28.51608
G1 X135.248 Y94.148 E29.2005
G1 X135.487 Y94.197 E29.20862
G1 X135.673 Y94.323 E29.21609
G1 X135.799 Y94.509 E29.22356
G1 X135.848 Y94.748 E29.23168
G1 X135.848 Y115.326 E29.9161
G1 X135.799 Y115.487 E29.9217
G1 X135.673 Y115.673 E29.92917
G0 F3600 X136.15 Y115.673
G0 X137.56 Y117.56
G0 X137.828 Y117.828
G1 F1800 X137.828 Y92.168 E30.78263
G1 X112.168 Y92.168 E31.63608
G1 X112.168 Y117.828 E32.48954
G1 X137.828 Y117.828 E33.34299
G0 F3600 X138.222 Y118.227
;TYPE:WALL-OUTER
G1 F1800 X138.227 Y91.768 E34.22302
G1 X111.768 Y91.769 E35.10305
G1 X111.769 Y118.222 E35.98288
G1 X138.222 Y118.227 E36.86271
G0 F3600 X138.222 Y118.027
G0 X137.56 Y117.56
G0 X135.283 Y116.15
G0 X135.283 Y115.446
G1 F1800 X114.692 Y115.448 E37.54757
G1 X114.606 Y115.39 E37.55102
G1 X114.55 Y115.283 E37.55504
G1 X114.548 Y94.692 E38.2399
G1 X114.606 Y94.606 E38.24335
G1 X114.713 Y94.55 E38.24737
G1 X135.312 Y94.548 E38.93249
G1 X135.448 Y94.684 E38.93889
G1 X135.446 Y115.283 E39.62401
G1 X135.39 Y115.39 E39.62803
G1 X135.283 Y115.446 E39.63205
G0 F3600 X135.083 Y115.446
G0 X135.083 Y116.15
G0 X137.448 Y117.448
;TYPE:SKIN
G1 F1800 X112.549 Y117.447 E40.46019
G1 X112.549 Y92.549 E41.2883
G1 X137.448 Y92.548 E42.11645
G1 X137.448 Y117.448 E42.94462
G0 F3600 X136.15 Y115.938
G0 X135.938 Y115.938
G1 F1800 X136.128 Y115.671 E42.95552
G1 X136.226 Y115.383 E42.96564
G1 X136.225 Y94.707 E43.65333
G1 X136.16 Y94.395 E43.66393
G1 X135.96 Y94.081 E43.67631
G1 X135.669 Y93.866 E43.68834
G1 X135.285 Y93.772 E43.70149
G1 X114.613 Y93.77 E44.38905
G1 X114.381 Y93.835 E44.39706
G1 X114.054 Y94.054 E44.41015
G1 X113.866 Y94.323 E44.42107
G1 X113.772 Y94.707 E44.43421
G1 X113.77 Y115.379 E45.12177
G1 X113.835 Y115.611 E45.12978
G1 X114.054 Y115.938 E45.14287
G1 X114.323 Y116.126 E45.15379
G1 X114.705 Y116.224 E45.1669
G1 X135.379 Y116.226 E45.85452
G1 X135.614 Y116.156 E45.86268
G1 X135.938 Y115.938 E45.87567
G0 F3600 X136.15 Y115.938
G0 X136.873 Y92.749
G1 F1800 X137.248 Y93.125 E45.89333
G0 F3600 X137.248 Y93.69
G1 F1800 X136.307 Y92.749 E45.93759
G0 F3600 X135.741 Y92.749
G1 F1800 X137.248 Y94.256 E46.00848
G0 F3600 X137.248 Y94.822
G1 F1800 X135.175 Y92.749 E46.10598
G0 F3600 X134.61 Y92.749
G1 F1800 X135.489 Y93.629 E46.14735
G0 F3600 X134.864 Y93.569
G1 F1800 X134.044 Y92.749 E46.18592
G0 F3600 X133.478 Y92.749
G1 F1800 X134.298 Y93.569 E46.22449
G0 F3600 X133.732 Y93.569
G1 F1800 X132.913 Y92.749 E46.26304
G0 F3600 X132.347 Y92.749
G1 F1800 X133.167 Y93.569 E46.30161
G0 F3600 X132.601 Y93.569
G1 F1800 X131.781 Y92.749 E46.34018
G0 F3600 X131.216 Y92.749
G1 F1800 X132.035 Y93.569 E46.37873
G0 F3600 X131.47 Y93.569
G1 F1800 X130.65 Y92.749 E46.4173
G0 F3600 X130.084 Y92.749
G1 F1800 X130.905 Y93.569 E46.45589
G0 F3600 X130.339 Y93.569
G1 F1800 X129.519 Y92.749 E46.49446
G0 F3600 X128.953 Y92.749
G1 F1800 X129.773 Y93.569 E46.53303
G0 F3600 X129.208 Y93.569
G1 F1800 X128.387 Y92.749 E46.57163
G0 F3600 X127.822 Y92.749
G1 F1800 X128.642 Y93.569 E46.6102
G0 F3600 X128.077 Y93.57
G1 F1800 X127.256 Y92.749 E46.64881
G0 F3600 X126.69 Y92.749
G1 F1800 X127.511 Y93.57 E46.68743
G0 F3600 X126.945 Y93.57
G1 F1800 X126.125 Y92.749 E46.72603
G0 F3600 X125.559 Y92.749
G1 F1800 X126.38 Y93.57 E46.76464
G0 F3600 X125.814 Y93.57
G1 F1800 X124.993 Y92.749 E46.80326
G0 F3600 X124.427 Y92.749
G1 F1800 X125.248 Y93.57 E46.84188
G0 F3600 X124.683 Y93.571
G1 F1800 X123.862 Y92.749 E46.88052
G0 F3600 X123.296 Y92.749
G1 F1800 X124.118 Y93.571 E46.91918
G0 F3600 X123.552 Y93.571
G1 F1800 X122.73 Y92.749 E46.95785
G0 F3600 X122.165 Y92.749
G1 F1800 X122.986 Y93.571 E46.99649
G0 F3600 X122.421 Y93.571
G1 F1800 X121.599 Y92.749 E47.03515
G0 F3600 X121.033 Y92.749
G1 F1800 X121.855 Y93.571 E47.07382
G0 F3600 X121.29 Y93.571
G1 F1800 X120.468 Y92.749 E47.11248
G0 F3600 X119.902 Y92.749
G1 F1800 X120.724 Y93.571 E47.15114
G0 F3600 X120.159 Y93.571
G1 F1800 X119.336 Y92.749 E47.18983
G0 F3600 X118.771 Y92.749
G1 F1800 X119.593 Y93.571 E47.2285
G0 F3600 X119.027 Y93.571
G1 F1800 X118.205 Y92.749 E47.26716
G0 F3600 X117.639 Y92.749
G1 F1800 X118.462 Y93.571 E47.30585
G0 F3600 X117.897 Y93.572
